packages/nouns-webapp/src/assets/icons/Heart.svg

<svg width="24" height="24" viewBox="0 0 24 24" fill="none" xmlns="http://www.w3.org/2000/svg">
<path fill-rule="evenodd" clip-rule="evenodd" d="M4.31357 5.42552C5.15491 4.55014 6.29585 4.05838 7.4855 4.05838C8.67515 4.05838 9.81609 4.55014 10.6574 5.42552L11.972 6.7925L13.2865 5.42552C13.7003 4.97954 14.1954 4.62382 14.7428 4.3791C15.2901 4.13438 15.8788 4.00556 16.4746 4.00018C17.0703 3.99479 17.661 4.11293 18.2124 4.34772C18.7638 4.5825 19.2647 4.92922 19.6859 5.36765C20.1072 5.80607 20.4403 6.32742 20.6659 6.90128C20.8915 7.47514 21.005 8.09001 20.9998 8.71001C20.9947 9.33002 20.8709 9.94274 20.6358 10.5124C20.4006 11.0821 20.0588 11.5974 19.6303 12.0281L11.972 20L4.31357 12.0281C3.47249 11.1525 3 9.96498 3 8.72682C3 7.48865 3.47249 6.30117 4.31357 5.42552Z" fill="currentColor"/>
</svg>

<svg xmlns="http://www.w3.org/2000/svg" width="24" height="24" fill="none">
    <path fill="currentColor" fill-rule="evenodd" d="M4.314 5.426a4.4 4.4 0 0 1 3.172-1.368c1.19 0 2.33.492 3.171 1.368l1.315 1.367 1.315-1.367a4.5 4.5 0 0 1 1.456-1.047 4.34 4.34 0 0 1 3.47-.031 4.5 4.5 0 0 1 1.473 1.02 4.7 4.7 0 0 1 .98 1.533 4.84 4.84 0 0 1-.03 3.611 4.7 4.7 0 0 1-1.006 1.516L11.972 20l-7.658-7.972A4.77 4.77 0 0 1 3 8.727c0-1.238.472-2.426 1.314-3.301" clip-rule="evenodd"/>
</svg>
